X: 38599
T: Stonebyres
R: reel
M: 4/4
K: Adorian
|:EAAB (3ccc Bc|dcBA GABG|EAAB (3ccc BA|(3BBB dB (3AAA A2:|
cdef gage|dcBA GABG|1 cdef gage|
dBGB (3AAA A2:|2 ced=f eaec|(3BBB dB (3AAA A2||

